X: 2
T: The Spring
M:C|
L:1/8
Z:Alf Warnock - alf0@rogers.com
K:Bb
"Bb"d4 "F"c2dc|"Gm"B2c2 "D"G2d2|^F2D2 "Cm"G2A2|"D"A4 "Gm"G4:|
|: "Bb"f2dc B2d2|"F"e2cB A2F2|"Bb"B2fe "Eb"d2gc|"F"c4 "Bb"B2f2|
"Gm"b4 a2b2|"A"f2a2 "D"^f2d2|"Gm"g2dc "Cm"A2eA|"D"A4 "Gm"G4:|
